app/assets/images/education.svg

<svg width="408" height="308" viewBox="0 0 408 308" fill="none" xmlns="http://www.w3.org/2000/svg">
<g clip-path="url(#clip0)">
<path d="M349.552 166.849C349.552 214.223 321.785 256.133 279.221 281.645C251.93 298.006 218.553 307.626 182.513 307.626C134.502 307.626 97.8783 289.475 70.3293 261.671C44.9366 236.05 27.2557 202.225 15.4747 166.849C-37.1188 8.9035 50.7392 -34.1862 182.513 26.0727C266.414 64.4442 349.552 89.1027 349.552 166.849Z" fill="#C7C7C7"/>
<path d="M279.221 84.1631V282.019C251.93 298.38 218.552 308 182.513 308C134.502 308 97.8781 289.849 70.3291 262.045V84.1631H279.221Z" fill="#F2F2F2"/>
<path d="M90.4213 180.571C101.358 177.091 112.706 175.067 124.172 174.552C129.917 174.307 135.673 174.533 141.381 175.225C147.035 175.973 152.62 177.169 158.084 178.802C163.482 180.366 168.806 182.172 174.186 183.795C179.652 185.465 185.208 186.821 190.828 187.857C196.419 188.869 202.066 189.543 207.738 189.873C213.355 190.2 219.026 190.264 224.627 189.665C229.858 189.161 234.982 187.862 239.822 185.812C244.336 183.842 248.507 181.165 252.18 177.883C253.096 177.065 253.978 176.211 254.825 175.32C255.325 174.798 254.532 174.002 254.031 174.526C246.872 182.012 237.461 186.654 227.254 188.204C221.694 189.049 216.027 189.098 210.418 188.88C204.683 188.658 198.968 188.081 193.305 187.15C187.71 186.222 182.175 184.962 176.73 183.376C171.381 181.826 166.105 180.039 160.775 178.428C155.398 176.739 149.909 175.431 144.349 174.513C138.772 173.664 133.136 173.272 127.496 173.343C116.225 173.523 105.027 175.182 94.188 178.277C92.8267 178.659 91.4716 179.063 90.1227 179.487C89.4354 179.703 89.7289 180.788 90.4213 180.571H90.4213Z" fill="#3F3D56"/>
<path d="M90.4213 209.03C101.358 205.55 112.706 203.526 124.172 203.011C129.917 202.766 135.673 202.992 141.381 203.684C147.035 204.432 152.62 205.628 158.084 207.261C163.482 208.825 168.806 210.631 174.186 212.254C179.652 213.924 185.208 215.28 190.828 216.316C196.419 217.328 202.066 218.002 207.738 218.332C213.355 218.659 219.026 218.723 224.627 218.124C229.858 217.62 234.982 216.321 239.822 214.271C244.336 212.301 248.507 209.624 252.18 206.342C253.096 205.524 253.978 204.67 254.825 203.779C255.325 203.257 254.532 202.461 254.031 202.985C246.872 210.471 237.461 215.113 227.254 216.663C221.694 217.508 216.027 217.557 210.418 217.339C204.683 217.117 198.968 216.54 193.305 215.609C187.71 214.681 182.175 213.421 176.73 211.835C171.381 210.285 166.105 208.498 160.775 206.887C155.398 205.198 149.909 203.89 144.349 202.972C138.772 202.123 133.136 201.731 127.496 201.802C116.225 201.982 105.027 203.641 94.188 206.736C92.8267 207.118 91.4716 207.522 90.1227 207.946C89.4354 208.162 89.7289 209.247 90.4213 209.03H90.4213Z" fill="#3F3D56"/>
<path d="M90.4213 154.732C101.358 151.252 112.706 149.228 124.172 148.713C129.917 148.468 135.673 148.694 141.381 149.386C147.035 150.134 152.62 151.33 158.084 152.963C163.482 154.527 168.806 156.333 174.186 157.956C179.652 159.626 185.208 160.982 190.828 162.019C196.419 163.03 202.066 163.704 207.738 164.035C213.355 164.361 219.026 164.425 224.627 163.826C229.858 163.322 234.982 162.023 239.822 159.973C244.336 158.003 248.507 155.327 252.18 152.045C253.096 151.226 253.978 150.372 254.825 149.481C255.325 148.959 254.532 148.163 254.031 148.687C246.872 156.173 237.461 160.815 227.254 162.365C221.694 163.21 216.027 163.259 210.418 163.041C204.683 162.82 198.968 162.242 193.305 161.311C187.71 160.383 182.175 159.123 176.73 157.538C171.381 155.987 166.105 154.2 160.775 152.589C155.398 150.9 149.909 149.592 144.349 148.674C138.772 147.825 133.136 147.433 127.496 147.504C116.225 147.685 105.027 149.343 94.188 152.438C92.8267 152.82 91.4716 153.224 90.1227 153.649C89.4354 153.864 89.7289 154.949 90.4213 154.732H90.4213Z" fill="#3F3D56"/>
<path d="M89.0833 105.88C91.8005 104.676 94.9132 104.886 97.7332 105.584C100.774 106.337 103.637 107.646 106.63 108.551C111.988 110.148 117.679 110.256 123.094 108.863C126.142 108.086 129.051 106.839 131.716 105.167C132.326 104.783 131.763 103.81 131.149 104.197C126.399 107.164 120.907 108.73 115.307 108.715C112.498 108.71 109.704 108.299 107.013 107.493C104.042 106.602 101.201 105.308 98.1913 104.541C95.0021 103.728 91.582 103.551 88.5164 104.91C87.857 105.202 88.4277 106.17 89.0833 105.88Z" fill="#3F3D56"/>
<path d="M172.529 278.136C182.04 278.136 189.75 270.424 189.75 260.911C189.75 251.398 182.04 243.686 172.529 243.686C163.018 243.686 155.309 251.398 155.309 260.911C155.309 270.424 163.018 278.136 172.529 278.136Z" fill="#F8B78A"/>
<path d="M79.6885 48.9635C84.8573 48.9635 89.0475 44.7721 89.0475 39.6019C89.0475 34.4316 84.8573 30.2402 79.6885 30.2402C74.5197 30.2402 70.3296 34.4316 70.3296 39.6019C70.3296 44.7721 74.5197 48.9635 79.6885 48.9635Z" fill="#F2F2F2"/>
<path d="M161.673 72.5551C165.187 72.5551 168.037 69.7049 168.037 66.1891C168.037 62.6734 165.187 59.8232 161.673 59.8232C158.158 59.8232 155.309 62.6734 155.309 66.1891C155.309 69.7049 158.158 72.5551 161.673 72.5551Z" fill="#F2F2F2"/>
<path d="M58.3499 133.593C61.8647 133.593 64.714 130.743 64.714 127.227C64.714 123.711 61.8647 120.861 58.3499 120.861C54.8351 120.861 51.9858 123.711 51.9858 127.227C51.9858 130.743 54.8351 133.593 58.3499 133.593Z" fill="#F2F2F2"/>
<path d="M32.7272 79.9346H32.0254V205.472H32.7272V79.9346Z" fill="#3F3D56"/>
<path d="M32.5115 194.713C40.0696 194.713 46.1968 180.727 46.1968 163.474C46.1968 146.221 40.0696 132.234 32.5115 132.234C24.9533 132.234 18.8262 146.221 18.8262 163.474C18.8262 180.727 24.9533 194.713 32.5115 194.713Z" fill="#F8B78A"/>
<path d="M32.5115 123.459C40.0696 123.459 46.1968 109.473 46.1968 92.22C46.1968 74.9669 40.0696 60.9805 32.5115 60.9805C24.9533 60.9805 18.8262 74.9669 18.8262 92.22C18.8262 109.473 24.9533 123.459 32.5115 123.459Z" fill="#F8B78A"/>
<path d="M32.8478 66.6976L32.1755 66.496C32.218 66.3541 36.3438 52.2112 29.5692 43.1067C25.7428 37.9646 19.1769 35.3573 10.0537 35.3573V34.6553C19.4123 34.6553 26.1683 37.3586 30.1341 42.6902C37.1185 52.0801 32.8913 66.5526 32.8478 66.6976Z" fill="#3F3D56"/>
<path d="M10.0534 43.7817C14.8984 43.7817 18.826 39.853 18.826 35.0066C18.826 30.1602 14.8984 26.2314 10.0534 26.2314C5.2084 26.2314 1.28076 30.1602 1.28076 35.0066C1.28076 39.853 5.2084 43.7817 10.0534 43.7817Z" fill="#F8B78A"/>
<path d="M288.532 233.92L281.969 294.321H327.256L329.225 289.725L331.851 294.321H374.513C374.513 294.321 371.231 231.951 365.324 229.981C359.417 228.011 288.532 233.92 288.532 233.92Z" fill="#2F2E41"/>
<path d="M327.257 101.301C339.944 101.301 350.229 91.0131 350.229 78.3223C350.229 65.6316 339.944 55.3438 327.257 55.3438C314.57 55.3438 304.285 65.6316 304.285 78.3223C304.285 91.0131 314.57 101.301 327.257 101.301Z" fill="#FFB8B8"/>
<path d="M314.13 92.7659C314.13 92.7659 316.099 113.775 314.13 115.088C312.161 116.401 345.634 115.745 345.634 115.745C345.634 115.745 341.04 96.7051 345.634 87.5137L314.13 92.7659Z" fill="#FFB8B8"/>
<path d="M325.944 110.492C325.944 110.492 342.833 113.123 344.234 107.868L352.854 119.683L353.511 237.859C353.511 237.859 283.282 246.394 280.656 232.607C278.031 218.819 307.567 109.835 307.567 109.835L315.002 109.354C315.002 109.354 324.631 110.492 325.944 110.492Z" fill="#D0CDE1"/>
<path d="M314.89 103.962L303.628 107.865L271.467 115.744L272.78 194.528C272.78 194.528 245.214 273.311 257.684 279.22C270.155 285.129 287.876 271.342 293.127 261.494C298.378 251.646 316.755 115.087 316.755 112.461C316.755 109.835 314.89 103.962 314.89 103.962Z" fill="#3F3D56"/>
<path d="M343.811 103.962L348.26 107.865L379.764 122.309L364.012 201.749C364.012 201.749 385.015 273.968 377.139 277.907C369.263 281.846 357.448 293.007 354.823 286.442C352.198 279.877 336.738 111.219 343.811 103.962Z" fill="#3F3D56"/>
<path d="M362.043 208.971C362.043 208.971 332.507 196.497 331.851 207.658C331.195 218.819 365.325 226.698 365.325 223.415C365.325 220.132 362.043 208.971 362.043 208.971Z" fill="#FFB8B8"/>
<path d="M289.845 204.376C289.845 204.376 323.975 229.981 310.848 236.546C297.721 243.111 280.656 213.567 280.656 213.567L289.845 204.376Z" fill="#FFB8B8"/>
<path d="M337.455 44.6616C337.563 44.4331 337.737 44.2422 337.954 44.1132C338.171 43.9842 338.422 43.9232 338.675 43.9379C328.158 43.3086 317.08 44.5347 308.281 50.332C305.817 51.9556 303.516 53.9409 300.711 54.8559L302.988 56.6421L300.267 57.4717L304.271 60.0603C303.867 60.5201 303.348 60.8647 302.768 61.0592C302.187 61.2537 301.566 61.2912 300.966 61.1678C302.706 61.6764 303.987 63.2253 304.638 64.9178C305.289 66.6103 305.406 68.4536 305.515 70.2636C306.188 67.6519 309.037 66.1146 311.729 65.9584C314.421 65.8022 317.046 66.6905 319.665 67.3291C325.37 68.7159 331.296 68.9439 337.091 67.9996C335.123 71.9498 336.783 76.6615 338.453 80.7464L341.788 88.9027C343.64 89.089 344.949 87.247 346.344 86.0149C347.615 84.8919 342.553 94.7685 343.337 94.4066C344.355 93.9365 355.1 82.0704 355.603 81.0679C357.899 76.4941 359.276 71.3926 359.069 66.2789C358.862 61.1653 356.991 56.0492 353.467 52.3386C351.075 49.8195 347.765 49.3783 345.327 47.2846C344.367 46.4606 344.363 45.8169 343.044 45.3364C342.606 45.1768 337.528 44.5008 337.455 44.6616Z" fill="#2F2E41"/>
<path d="M276.062 117.714L271.467 115.744L234.712 176.145C234.712 176.145 228.149 191.902 239.963 199.124C251.777 206.345 279.344 228.011 279.344 228.011L295.096 203.719C295.096 203.719 262.935 188.619 264.904 182.71C266.873 176.802 277.374 161.045 277.374 161.045L276.062 117.714Z" fill="#3F3D56"/>
<path d="M371.232 120.996L379.764 122.309C379.764 122.309 415.207 191.902 406.674 205.032C398.142 218.163 363.355 236.546 363.355 236.546C363.355 236.546 362.699 214.88 356.792 207.002L377.139 199.123L365.981 155.792L371.232 120.996Z" fill="#3F3D56"/>
</g>
<defs>
<clipPath id="clip0">
<rect width="408" height="308" fill="white"/>
</clipPath>
</defs>
</svg>

<?xml version="1.0" encoding="utf-8"?>
<!-- Generator: Adobe Illustrator 17.0.0, SVG Export Plug-In . SVG Version: 6.00 Build 0)  -->
<!DOCTYPE svg PUBLIC "-//W3C//DTD SVG 1.1//EN" "http://www.w3.org/Graphics/SVG/1.1/DTD/svg11.dtd">
<svg version="1.1" id="Layer_1" xmlns="http://www.w3.org/2000/svg" xmlns:xlink="http://www.w3.org/1999/xlink" x="0px" y="0px"
	 width="408px" height="308px" viewBox="0 0 408 308" enable-background="new 0 0 408 308" xml:space="preserve">
<g>
	<defs>
		<rect id="SVGID_1_" width="408" height="308"/>
	</defs>
	<clipPath id="SVGID_2_">
		<use xlink:href="#SVGID_1_"  overflow="visible"/>
	</clipPath>
	<g clip-path="url(#SVGID_2_)">
		<path fill="#D8D8D8" d="M349.552,166.849c0,47.374-27.767,89.284-70.331,114.796c-27.291,16.361-60.668,25.981-96.708,25.981
			c-48.011,0-84.635-18.151-112.184-45.955c-25.393-25.621-43.074-59.446-54.855-94.822C-37.119,8.903,50.739-34.186,182.513,26.073
			C266.414,64.444,349.552,89.103,349.552,166.849z"/>
		<path fill="#F2F2F2" d="M279.221,84.163v197.856C251.93,298.38,218.552,308,182.513,308c-48.011,0-84.635-18.151-112.184-45.955
			V84.163H279.221z"/>
		<path fill="#393944" d="M90.421,180.571c10.937-3.48,22.285-5.504,33.751-6.019c5.745-0.245,11.501-0.019,17.209,0.673
			c5.654,0.748,11.239,1.944,16.703,3.577c5.398,1.564,10.722,3.37,16.102,4.993c5.466,1.67,11.022,3.026,16.642,4.062
			c5.591,1.012,11.238,1.686,16.91,2.016c5.617,0.327,11.288,0.391,16.889-0.208c5.231-0.504,10.355-1.803,15.195-3.853
			c4.514-1.97,8.685-4.647,12.358-7.929c0.916-0.818,1.798-1.672,2.645-2.563c0.5-0.522-0.293-1.318-0.794-0.794
			c-7.159,7.486-16.57,12.128-26.777,13.678c-5.56,0.845-11.227,0.894-16.836,0.676c-5.735-0.222-11.45-0.799-17.113-1.73
			c-5.595-0.928-11.13-2.188-16.575-3.774c-5.349-1.55-10.625-3.337-15.955-4.948c-5.377-1.689-10.866-2.997-16.426-3.915
			c-5.577-0.849-11.213-1.241-16.853-1.17c-11.271,0.18-22.469,1.839-33.308,4.934c-1.361,0.382-2.716,0.786-4.065,1.21
			C89.435,179.703,89.729,180.788,90.421,180.571L90.421,180.571z"/>
		<path fill="#393944" d="M90.421,209.03c10.937-3.48,22.285-5.504,33.751-6.019c5.745-0.245,11.501-0.019,17.209,0.673
			c5.654,0.748,11.239,1.944,16.703,3.577c5.398,1.564,10.722,3.37,16.102,4.993c5.466,1.67,11.022,3.026,16.642,4.062
			c5.591,1.012,11.238,1.686,16.91,2.016c5.617,0.327,11.288,0.391,16.889-0.208c5.231-0.504,10.355-1.803,15.195-3.853
			c4.514-1.97,8.685-4.647,12.358-7.929c0.916-0.818,1.798-1.672,2.645-2.563c0.5-0.522-0.293-1.318-0.794-0.794
			c-7.159,7.486-16.57,12.128-26.777,13.678c-5.56,0.845-11.227,0.894-16.836,0.676c-5.735-0.222-11.45-0.799-17.113-1.73
			c-5.595-0.928-11.13-2.188-16.575-3.774c-5.349-1.55-10.625-3.337-15.955-4.948c-5.377-1.689-10.866-2.997-16.426-3.915
			c-5.577-0.849-11.213-1.241-16.853-1.17c-11.271,0.18-22.469,1.839-33.308,4.934c-1.361,0.382-2.716,0.786-4.065,1.21
			C89.435,208.162,89.729,209.247,90.421,209.03L90.421,209.03z"/>
		<path fill="#393944" d="M90.421,154.732c10.937-3.48,22.285-5.504,33.751-6.019c5.745-0.245,11.501-0.019,17.209,0.673
			c5.654,0.748,11.239,1.944,16.703,3.577c5.398,1.564,10.722,3.37,16.102,4.993c5.466,1.67,11.022,3.026,16.642,4.063
			c5.591,1.011,11.238,1.685,16.91,2.016c5.617,0.326,11.288,0.39,16.889-0.209c5.231-0.504,10.355-1.803,15.195-3.853
			c4.514-1.97,8.685-4.646,12.358-7.928c0.916-0.819,1.798-1.673,2.645-2.564c0.5-0.522-0.293-1.318-0.794-0.794
			c-7.159,7.486-16.57,12.128-26.777,13.678c-5.56,0.845-11.227,0.894-16.836,0.676c-5.735-0.221-11.45-0.799-17.113-1.73
			c-5.595-0.928-11.13-2.188-16.575-3.773c-5.349-1.551-10.625-3.338-15.955-4.949c-5.377-1.689-10.866-2.997-16.426-3.915
			c-5.577-0.849-11.213-1.241-16.853-1.17c-11.271,0.181-22.469,1.839-33.308,4.934c-1.361,0.382-2.716,0.786-4.065,1.211
			C89.435,153.864,89.729,154.949,90.421,154.732L90.421,154.732z"/>
		<path fill="#393944" d="M89.083,105.88c2.717-1.204,5.83-0.994,8.65-0.296c3.041,0.753,5.904,2.062,8.897,2.967
			c5.358,1.597,11.049,1.705,16.464,0.312c3.048-0.777,5.957-2.024,8.622-3.696c0.61-0.384,0.047-1.357-0.567-0.97
			c-4.75,2.967-10.242,4.533-15.842,4.518c-2.809-0.005-5.603-0.416-8.294-1.222c-2.971-0.891-5.812-2.185-8.822-2.952
			c-3.189-0.813-6.609-0.99-9.675,0.369C87.857,105.202,88.428,106.17,89.083,105.88z"/>
		<path fill="#FF825C" d="M172.529,278.136c9.511,0,17.221-7.712,17.221-17.225c0-9.513-7.71-17.225-17.221-17.225
			c-9.511,0-17.22,7.712-17.22,17.225C155.309,270.424,163.018,278.136,172.529,278.136z"/>
		<path fill="#F2F2F2" d="M79.688,48.964c5.169,0,9.359-4.191,9.359-9.362c0-5.17-4.19-9.362-9.359-9.362s-9.359,4.191-9.359,9.362
			C70.33,44.772,74.52,48.964,79.688,48.964z"/>
		<path fill="#F2F2F2" d="M161.673,72.555c3.514,0,6.364-2.85,6.364-6.366c0-3.516-2.85-6.366-6.364-6.366
			c-3.515,0-6.364,2.85-6.364,6.366C155.309,69.705,158.158,72.555,161.673,72.555z"/>
		<path fill="#F2F2F2" d="M58.35,133.593c3.515,0,6.364-2.85,6.364-6.366s-2.849-6.366-6.364-6.366s-6.364,2.85-6.364,6.366
			S54.835,133.593,58.35,133.593z"/>
		<path fill="#393944" d="M32.727,79.935h-0.702v125.537h0.702V79.935z"/>
		<path fill="#FF825C" d="M32.512,194.713c7.558,0,13.685-13.986,13.685-31.239s-6.127-31.24-13.685-31.24
			c-7.558,0-13.685,13.987-13.685,31.24S24.953,194.713,32.512,194.713z"/>
		<path fill="#FF825C" d="M32.512,123.459c7.558,0,13.685-13.986,13.685-31.239c0-17.253-6.127-31.24-13.685-31.24
			c-7.558,0-13.685,13.986-13.685,31.24C18.826,109.473,24.953,123.459,32.512,123.459z"/>
		<path fill="#393944" d="M32.848,66.698l-0.672-0.202c0.042-0.142,4.168-14.285-2.606-23.389
			c-3.826-5.142-10.392-7.749-19.515-7.749v-0.702c9.359,0,16.115,2.703,20.08,8.035C37.118,52.08,32.891,66.553,32.848,66.698z"/>
		<path fill="#FF825C" d="M10.053,43.782c4.845,0,8.773-3.929,8.773-8.775s-3.928-8.775-8.773-8.775s-8.773,3.929-8.773,8.775
			S5.208,43.782,10.053,43.782z"/>
		<path fill="#393944" d="M288.532,233.92l-6.563,60.401h45.287l1.969-4.596l2.626,4.596h42.662c0,0-3.282-62.37-9.189-64.34
			C359.417,228.011,288.532,233.92,288.532,233.92z"/>
		<path fill="#FECEB8" d="M327.257,101.301c12.687,0,22.972-10.288,22.972-22.979c0-12.691-10.285-22.979-22.972-22.979
			c-12.687,0-22.972,10.288-22.972,22.979C304.285,91.013,314.57,101.301,327.257,101.301z"/>
		<path fill="#FECEB8" d="M314.13,92.766c0,0,1.969,21.009,0,22.322c-1.969,1.313,31.504,0.657,31.504,0.657s-4.594-19.04,0-28.231
			L314.13,92.766z"/>
		<path fill="#AFADBC" d="M325.944,110.492c0,0,16.889,2.631,18.29-2.624l8.62,11.815l0.657,118.176c0,0-70.229,8.535-72.855-5.252
			c-2.625-13.788,26.911-122.772,26.911-122.772l7.435-0.481C315.002,109.354,324.631,110.492,325.944,110.492z"/>
		<path fill="#454554" d="M314.89,103.962l-11.262,3.903l-32.161,7.879l1.313,78.784c0,0-27.566,78.783-15.096,84.692
			c12.471,5.909,30.192-7.878,35.443-17.726c5.251-9.848,23.628-146.407,23.628-149.033S314.89,103.962,314.89,103.962z"/>
		<path fill="#454554" d="M343.811,103.962l4.449,3.903l31.504,14.444l-15.752,79.44c0,0,21.003,72.219,13.127,76.158
			c-7.876,3.939-19.691,15.1-22.316,8.535C352.198,279.877,336.738,111.219,343.811,103.962z"/>
		<path fill="#FECEB8" d="M362.043,208.971c0,0-29.536-12.474-30.192-1.313c-0.656,11.161,33.474,19.04,33.474,15.757
			C365.325,220.132,362.043,208.971,362.043,208.971z"/>
		<path fill="#FECEB8" d="M289.845,204.376c0,0,34.13,25.605,21.003,32.17c-13.127,6.565-30.192-22.979-30.192-22.979
			L289.845,204.376z"/>
		<path fill="#393944" d="M337.455,44.662c0.108-0.228,0.282-0.419,0.499-0.548c0.217-0.129,0.468-0.19,0.721-0.175
			c-10.517-0.629-21.595,0.597-30.394,6.394c-2.464,1.624-4.765,3.609-7.57,4.524l2.277,1.786l-2.721,0.83l4.004,2.589
			c-0.404,0.46-0.923,0.804-1.503,0.999c-0.581,0.194-1.202,0.232-1.802,0.109c1.74,0.509,3.021,2.057,3.672,3.75
			c0.651,1.692,0.768,3.536,0.877,5.346c0.673-2.612,3.522-4.149,6.214-4.305c2.692-0.156,5.317,0.732,7.936,1.371
			c5.705,1.387,11.631,1.615,17.426,0.671c-1.968,3.95-0.308,8.662,1.362,12.747l3.335,8.156c1.852,0.186,3.161-1.656,4.556-2.888
			c1.271-1.123-3.791,8.754-3.007,8.392c1.018-0.47,11.763-12.336,12.266-13.339c2.296-4.574,3.673-9.675,3.466-14.789
			c-0.207-5.114-2.078-10.23-5.602-13.94c-2.392-2.519-5.702-2.96-8.14-5.054c-0.96-0.824-0.964-1.468-2.283-1.948
			C342.606,45.177,337.528,44.501,337.455,44.662z"/>
		<path fill="#454554" d="M276.062,117.714l-4.595-1.97l-36.755,60.401c0,0-6.563,15.757,5.251,22.979
			c11.814,7.221,39.381,28.887,39.381,28.887l15.752-24.292c0,0-32.161-15.1-30.192-21.009c1.969-5.908,12.47-21.665,12.47-21.665
			L276.062,117.714z"/>
		<path fill="#454554" d="M371.232,120.996l8.532,1.313c0,0,35.443,69.593,26.91,82.723c-8.532,13.131-43.319,31.514-43.319,31.514
			s-0.656-21.666-6.563-29.544l20.347-7.879l-11.158-43.331L371.232,120.996z"/>
	</g>
</g>
</svg>
